assets/images/icons/src/battery-3.svg

<?xml version="1.0" encoding="utf-8"?>
<!-- Generated by IcoMoon.io -->
<!DOCTYPE svg PUBLIC "-//W3C//DTD SVG 1.1//EN" "http://www.w3.org/Graphics/SVG/1.1/DTD/svg11.dtd">
<svg version="1.1" xmlns="http://www.w3.org/2000/svg" xmlns:xlink="http://www.w3.org/1999/xlink" width="18" height="14" viewBox="0 0 18 14">
<path fill="#444444" d="M2 10v-6h10v6h-10zM17 4.5q0.414 0 0.707 0.293t0.293 0.707v3q0 0.414-0.293 0.707t-0.707 0.293v1.25q0 0.516-0.367 0.883t-0.883 0.367h-14.5q-0.516 0-0.883-0.367t-0.367-0.883v-7.5q0-0.516 0.367-0.883t0.883-0.367h14.5q0.516 0 0.883 0.367t0.367 0.883v1.25zM17 8.5v-3h-1v-2.25q0-0.109-0.070-0.18t-0.18-0.070h-14.5q-0.109 0-0.18 0.070t-0.070 0.18v7.5q0 0.109 0.070 0.18t0.18 0.070h14.5q0.109 0 0.18-0.070t0.070-0.18v-2.25h1z"></path>
</svg>

<svg xmlns="http://www.w3.org/2000/svg" width="18" height="14" viewBox="0 0 18 14"><path fill="#444" d="M2 10V4h10v6H2zm15-5.5q.414 0 .707.293T18 5.5v3q0 .414-.293.707T17 9.5v1.25q0 .516-.367.883T15.75 12H1.25q-.516 0-.883-.367T0 10.75v-7.5q0-.516.367-.883T1.25 2h14.5q.516 0 .883.367T17 3.25V4.5zm0 4v-3h-1V3.25q0-.109-.07-.18T15.75 3H1.25q-.109 0-.18.07T1 3.25v7.5q0 .109.07.18t.18.07h14.5q.109 0 .18-.07t.07-.18V8.5h1z"/></svg>
